packages/core/src/svgs/tokens/branded/LTC.svg

<svg width="24" height="24" viewBox="0 0 24 24" fill="none" xmlns="http://www.w3.org/2000/svg">
<path d="M5.03786 16.0122L3.25 16.7122L4.11215 13.25L5.91215 12.525L8.51215 2H14.925L13.025 9.75001L14.7878 9.03713L13.9378 12.4628L12.1621 13.1878L11.1 17.7143H20.75L19.6621 22H3.56215L5.03786 16.0122Z" fill="#345D9D"/>
</svg>

<svg xmlns="http://www.w3.org/2000/svg" width="24" height="24" fill="none" viewBox="0 0 24 24">
    <path fill="#345D9D" d="m5.038 16.012-1.788.7.862-3.462 1.8-.725L8.512 2h6.413l-1.9 7.75 1.763-.713-.85 3.426-1.776.725-1.062 4.526h9.65L19.662 22h-16.1z"/>
</svg>
